pix_core/f/powerpoint.svg

<svg fill="none" preserveAspectRatio="xMinYMid meet" viewBox="0 0 24 24" xmlns="http://www.w3.org/2000/svg"><g fill="#fff"><g clip-rule="evenodd" fill-rule="evenodd"><path d="m4.5 5c0-1.38071 1.11929-2.5 2.5-2.5h6.1716c.663 0 1.2989.26339 1.7677.73223l3.8285 3.82843c.4688.46884.7322 1.10473.7322 1.76777v10.17157c0 1.3807-1.1193 2.5-2.5 2.5h-10c-1.38071 0-2.5-1.1193-2.5-2.5 0-.2761.22386-.5.5-.5s.5.2239.5.5c0 .8284.67157 1.5 1.5 1.5h10c.8284 0 1.5-.6716 1.5-1.5v-10c0-.27614-.2239-.5-.5-.5h-3c-.8284 0-1.5-.67157-1.5-1.5v-3c0-.27614-.2239-.5-.5-.5h-6c-.82843 0-1.5.67157-1.5 1.5v6c0 .2761-.22386.5-.5.5s-.5-.2239-.5-.5zm10 2v-2.79289l3.2929 3.29289h-2.7929c-.2761 0-.5-.22386-.5-.5z"/><path d="m3.28076 12.7343c0-.0553.04477-.1.1-.1h1.66113c.34569 0 .64798.0626.90327.1922.25553.1269.454.3044.59159.533.13727.228.20475.4874.20475.7752 0 .2912-.06732.5486-.20586.7682-.13845.2194-.33788.3868-.59377.5034-.25441.1167-.55546.1731-.89998.1731h-.68222v1.4205c0 .0552-.04477.1-.1.1h-.87891c-.05523 0-.1-.0448-.1-.1zm1.07891 1.9595h.68222c.15778 0 .27695-.0257.36349-.0704.08824-.0476.14953-.1108.18832-.19.04131-.0842.06304-.1812.06304-.2929 0-.1137-.0218-.2179-.06456-.3137-.04043-.0906-.10396-.1635-.19341-.2198-.08487-.0534-.2014-.0842-.35688-.0842h-.68222z"/><path d="m7.44795 12.7343c0-.0553.04477-.1.1-.1h1.66113c.34569 0 .64797.0626.90322.1922.2556.1269.454.3044.5916.533.1373.228.2048.4874.2048.7752 0 .2912-.0673.5486-.2059.7682-.1384.2194-.3379.3868-.5937.5034-.25445.1167-.5555.1731-.90002.1731h-.68222v1.4205c0 .0552-.04478.1-.1.1h-.87891c-.05523 0-.1-.0448-.1-.1zm1.07891 1.9595h.68222c.15779 0 .27695-.0257.36349-.0704.08824-.0476.14953-.1108.18832-.19.04131-.0842.06304-.1812.06304-.2929 0-.1137-.0218-.2179-.06456-.3137-.04043-.0906-.10396-.1635-.19341-.2198-.08487-.0534-.2014-.0842-.35688-.0842h-.68222z"/></g><path d="m11.3544 12.7343c0-.0553.0448-.1.1-.1h3.4805c.0552 0 .1.0447.1.1v.6885c0 .0552-.0448.1-.1.1h-1.2125v3.4771c0 .0552-.0448.1-.1.1h-.876c-.0552 0-.1-.0448-.1-.1v-3.4771h-1.192c-.0552 0-.1-.0448-.1-.1z"/></g></svg>

<svg viewBox="0 0 24 24" fill="none" xmlns="http://www.w3.org/2000/svg" preserveAspectRatio="xMinYMid meet">
<path fill-rule="evenodd" clip-rule="evenodd" d="M4.5 5C4.5 3.61929 5.61929 2.5 7 2.5H13.1716C13.8346 2.5 14.4705 2.76339 14.9393 3.23223L18.7678 7.06066C19.2366 7.5295 19.5 8.16539 19.5 8.82843V19C19.5 20.3807 18.3807 21.5 17 21.5H7C5.61929 21.5 4.5 20.3807 4.5 19C4.5 18.7239 4.72386 18.5 5 18.5C5.27614 18.5 5.5 18.7239 5.5 19C5.5 19.8284 6.17157 20.5 7 20.5H17C17.8284 20.5 18.5 19.8284 18.5 19V9C18.5 8.72386 18.2761 8.5 18 8.5H15C14.1716 8.5 13.5 7.82843 13.5 7V4C13.5 3.72386 13.2761 3.5 13 3.5H7C6.17157 3.5 5.5 4.17157 5.5 5V11C5.5 11.2761 5.27614 11.5 5 11.5C4.72386 11.5 4.5 11.2761 4.5 11V5ZM14.5 7V4.20711L17.7929 7.5H15C14.7239 7.5 14.5 7.27614 14.5 7Z" fill="#fff"/>
<path fill-rule="evenodd" clip-rule="evenodd" d="M3.28076 12.7343C3.28076 12.679 3.32553 12.6343 3.38076 12.6343H5.04189C5.38758 12.6343 5.68987 12.6969 5.94516 12.8265C6.20069 12.9534 6.39916 13.1309 6.53675 13.3595C6.67402 13.5875 6.7415 13.8469 6.7415 14.1347C6.7415 14.4259 6.67418 14.6833 6.53564 14.9029C6.39719 15.1223 6.19776 15.2897 5.94187 15.4063C5.68746 15.523 5.38641 15.5794 5.04189 15.5794H4.35967V16.9999C4.35967 17.0551 4.3149 17.0999 4.25967 17.0999H3.38076C3.32553 17.0999 3.28076 17.0551 3.28076 16.9999V12.7343ZM4.35967 14.6938H5.04189C5.19967 14.6938 5.31884 14.6681 5.40538 14.6234C5.49362 14.5758 5.55491 14.5126 5.5937 14.4334C5.63501 14.3492 5.65674 14.2522 5.65674 14.1405C5.65674 14.0268 5.63494 13.9226 5.59218 13.8268C5.55175 13.7362 5.48822 13.6633 5.39877 13.607C5.3139 13.5536 5.19737 13.5228 5.04189 13.5228H4.35967V14.6938Z" fill="#fff"/>
<path fill-rule="evenodd" clip-rule="evenodd" d="M7.44795 12.7343C7.44795 12.679 7.49272 12.6343 7.54795 12.6343H9.20908C9.55477 12.6343 9.85705 12.6969 10.1123 12.8265C10.3679 12.9534 10.5663 13.1309 10.7039 13.3595C10.8412 13.5875 10.9087 13.8469 10.9087 14.1347C10.9087 14.4259 10.8414 14.6833 10.7028 14.9029C10.5644 15.1223 10.3649 15.2897 10.1091 15.4063C9.85465 15.523 9.5536 15.5794 9.20908 15.5794H8.52686V16.9999C8.52686 17.0551 8.48208 17.0999 8.42686 17.0999H7.54795C7.49272 17.0999 7.44795 17.0551 7.44795 16.9999V12.7343ZM8.52686 14.6938H9.20908C9.36687 14.6938 9.48603 14.6681 9.57257 14.6234C9.66081 14.5758 9.7221 14.5126 9.76089 14.4334C9.8022 14.3492 9.82393 14.2522 9.82393 14.1405C9.82393 14.0268 9.80213 13.9226 9.75937 13.8268C9.71894 13.7362 9.65541 13.6633 9.56596 13.607C9.48109 13.5536 9.36456 13.5228 9.20908 13.5228H8.52686V14.6938Z" fill="#fff"/>
<path fill="#fff" d="M11.3544 12.7343C11.3544 12.679 11.3992 12.6343 11.4544 12.6343H14.9349C14.9901 12.6343 15.0349 12.679 15.0349 12.7343V13.4228C15.0349 13.478 14.9901 13.5228 14.9349 13.5228H13.7224V16.9999C13.7224 17.0551 13.6776 17.0999 13.6224 17.0999H12.7464C12.6912 17.0999 12.6464 17.0551 12.6464 16.9999V13.5228H11.4544C11.3992 13.5228 11.3544 13.478 11.3544 13.4228V12.7343Z" fill="#fff"/>
</svg>
